!!!COM:	Johannes Ockeghem
!!!CDT:	~1425-1497/02/06
!!!OPR:	Missa Quinti toni
!!!ONM:	4
!!!OTL:	Sanctus
!!!AGN:	Mass; Sanctus
!!!SCT:	Ock1012d
!!!SCA:	Ock1012d
!!!voices:	3
!!!voices-OPR:	3
**kern	**kern	**kern
*staff3	*staff2	*staff1
*Ivox	*Ivox	*Ivox
*I"Contratenor	*I"Tenor	*I"Discantus
*I'Ct	*I'T	*I'D
*>[A,B,C,D,C]	*>[A,B,C,D,C]	*>[A,B,C,D,C]
*>Sanctus[A]	*>Sanctus[A]	*>Sanctus[A]
*>Pleni[B]	*>Pleni[B]	*>Pleni[B]
*>Osanna[C]	*>Osanna[C]	*>Osanna[C]
*>Benedictus[D]	*>Benedictus[D]	*>Benedictus[D]
*>A	*>A	*>A
*clefF4	*clefGv2	*clefG2
*k[b-e-]	*k[b-]	*k[]
*M2/1	*M2/1	*M2/1
*met(C)	*met(C)	*met(C)
=1-	=1-	=1-
!!section: Sanctus
!!!OMD: Sanctus
!	!	!LO:TX:X=-40:Z=6:t=[key signature flat on B3 only]
1F	0F	1.f
1D	.	.
.	.	2d/
=2	=2	=2
1BB-	1B-	1d
2r	2A/	2c/
2E-\	[2B-\	2B-/
=3	=3	=3
2D\	2B-\]	2d/
2C/	2c\	2e-/
1F	1A	1c
=4	=4	=4
2r	1G	2B-/
1C	.	1e-i
.	2r	.
[2BB-/	[2G/	[2d/
=5	=5	=5
4BB-/]	2G/]	4d/]
4AA/	.	4B-/
2FF/	2A/	2c/
2BB-/	1B-	2r
2GG/	.	2B-/
=6	=6	=6
2AA/	2A/	4c/
.	.	2d/
1BB-	2G/	.
.	.	4e/
.	2F/	2f/
2BB-/	[2f\	2B-/
=7	=7	=7
2D\	4f\]	2f/
.	8e-i\L	.
.	8d\J	.
2C/	2e-i\	2g/
1D	2d\	2f/
.	[2B-\	2r
=8	=8	=8
2E-\	4B-\]	2.b-\
.	4A/	.
1F	1F	.
.	.	4a/
.	.	2a/
[2C/	[2E/	2g/
=9	=9	=9
2C/]	2E/]	1cc
2FF/	1F	.
2F\	.	2a/
2BB-/	[2G/	[2b-i\
=10	=10	=10
2C/	2G/]	4b-\]
.	.	4g/
2D\	2F/	2.a/
1E-	1B-	.
.	.	4f/
.	.	2g/
=11	=11	=11
2F\	2A/	2f/
2C/	1G	2r
2r	.	2B-/
2C/	2E-/	2c/
=12	=12	=12
2BB-/	2D/	2d/
2AA/	2r	1c
1FF	2.A/	.
.	.	2f/
.	8G/L	.
.	8A/J	.
=13	=13	=13
1r	2B-\	2g/
.	2G/	2b-i\
1FF	1F	2.a/
.	.	4f/
=14	=14	=14
2C/	2E/	2g/
2.D\	2F/	2.f/
.	2G/	.
4BB-/	.	4d/
4C/	2r	4e-i/
4BB-/	.	[4d/
=15	=15	=15
2GG/	2G/	4d/]
.	.	4B-/
2r	2A/	2c/
2GG/	2B-\	2d/
2AA/	2c\	2r
=16	=16	=16
4BB-/	2r	2G/
2C/	.	.
.	2F/	2A/
4AA/	.	.
2GG/	2G/	2B-/
[2FF/	[2A/	2c/
=17	=17	=17
1.FF]	4A/]	2.F/
.	4B-\	.
.	2c\	.
.	.	4G/
.	1F	4A/
.	.	4B-/
[2AA/	.	[2c/
=18	=18	=18
4AA/]	2E/	4c/]
4GG/	.	4B-/
1BB-	2D/	2.d/
.	1F	.
.	.	4c/
2AA/	.	[2f/
=19	=19	=19
2FF/	2A/	4f/]
.	.	4d/
1C	2G/	2.e/
.	1c	.
.	.	8f/L
.	.	8g/J
2AA/	.	[2a/
=20	=20	=20
1BB-	1d	4a/]
.	.	4f/
.	.	2.b-\
2GG/	2e\	.
.	.	4cc\
2FF/	[2f\	2a/
=21	=21	=21
2r	4f\]	4f/
.	2e\	2g/
2C/	.	.
.	8d\L	8f/L
.	8e\J	8g/J
4AA/	4f\	2a/
2BB-/	4d\	.
.	4e\	4g/
4C/	[4c\	4e/
=22	=22	=22
2GG/	4c\]	2d/
.	4Bni\	.
2C/	2c\	2.c/
2F\	2.A/	.
.	.	4d/
2Eni\	.	[2e/
.	4B-i\	.
=23	=23	=23
2.C/	1c	4e/]
.	.	4f/
.	.	2.g/
4BB-/	.	.
2GG/	2B-\	.
.	.	8f/L
.	.	8g/J
[2FF/	2c\	[2a/
=24	=24	=24
2FF/]	1F	4a/]
.	.	4f/
2FF/	.	1f
1C	1G	.
.	.	2e/
=25	=25	=25
0FF	[0F	1f
.	.	1r
=26	=26	=26
1BB-	1F]	1d
1E-	1r	1g
=27	=27	=27
2D\	1r	2f/
2BB-/	.	2d/
1C	2.G/	1e
.	4A/	.
=28	=28	=28
1.BB-	1B-	1d
.	2G/	1r
2AA-/	[2A-/	.
=29	=29	=29
2C/	2A-/]	2.f/
2D\	2F/	.
.	.	4e-i/
2.E-\	1E-	1g
4F\	.	.
=30	=30	=30
2G\	1r	2e-i/
2F\	.	1f
1D	1B-	.
.	.	2d/
=31	=31	=31
1C	1c	2e-i/
.	.	1c
2F\	2A/	.
2BB-/	[2B-\	2f/
=32	=32	=32
2r	2B-\]	2d/
2C/	2G/	2e-i/
1D	2F/	1f
.	2B-\	.
=33	=33	=33
2E-\	2c\	2e-i/
2BB-/	1B-	2d/
1F	.	1c
.	2A/	.
=34	=34	=34
[0BB-	1B-	2B-/
.	.	2d/
.	2G/	2e-i/
.	2F/	[2f/
=35	=35	=35
0BB-]	2.B-\	4f/]
.	.	4e-i/
.	.	4d/
.	4c\	4c/
.	2d\	2B-/
.	2e\	4A/
.	.	4G/
=36	=36	=36
1BB-	2.f\	2F/
.	.	2B-/
.	4e\	.
2AA/	4d\	2c/
.	4c\	.
2GG/	2B-\	[2d/
=37	=37	=37
2.BB-/	2.d\	2d/]
.	.	2B-/
4AA/	4c\	.
2FF/	2A/	2c/
2BB-/	2B-\	2d/
=38	=38	=38
2C/	2A/	2e/
1D	2F/	2.f/
.	1B-	.
.	.	8e/L
.	.	8f/J
2BB-/	.	[2g/
=39	=39	=39
2C/	1A	2g/]
2D\	.	2f/
2BB-/	1B-	2g/
2GG/	.	[2b-\
=40	=40	=40
1FF	1c	2b-\]
.	.	2a/
2GG/	2B-\	2b-i\
2FF/	2A/	2cc\
=41	=41	=41
2.AA/	1F	2a/
.	.	2f/
4BB-/	.	.
2GG/	2E/	2g/
2FF/	2F/	[2a/
=42	=42	=42
2C/	2A/	2a/]
2D\	2B-\	2f/
2C/	[1c	2e/
[2E-\	.	[2g/
=43	=43	=43
2E-\]	1c]	2g/]
2C/	.	2e-i/
1BBn	2r	2.d/
.	2Bni\	.
.	.	8c/L
.	.	8d/J
=44	=44	=44
2r	2c\	1e-i
2C/	2A/	.
2D\	2B-\	2d/
2E-\	2G/	[2c/
=45	=45	=45
2.F\	1F	2c/]
.	.	2f/
4D\	.	.
2E-\	[1c	2g/
2F\	.	[2a/
=46	=46	=46
1C	2c\]	4a/]
.	.	4g/
.	4B-\	2g/
.	4c\	.
2r	2.d\	2f/
[2BB-/	.	[2b-i\
.	4c\	.
=47	=47	=47
2BB-/]	2d\	4b-\]
.	.	8a/L
.	.	8f/J
2GG/	2e\	2g/
2AA/	1f	2f/
[2BB-/	.	[2d/
=48	=48	=48
4BB-/]	1F	4d/]
4AA/	.	4c/
2FF/	.	1f
1C	1G	.
.	.	2e/
=49	=49	=49
0FFl	0Fl	0fl
!!LO:LB:i:g=z
=50||	=50||	=50||
*>B	*>B	*>B
*clefF4	*clefGv2	*clefG2
*k[b-e-]	*k[b-]	*k[]
*M2/1	*M2/1	*M2/1
*met(C)	*met(C)	*met(C)
!!section: Pleni
!!!OMD: Pleni
!	!	!LO:TX:X=-40:Z=6:t=[key signature flat on B3 only]
0r	1c	0r
.	2B-\	.
.	[2c\	.
=51	=51	=51
1r	4c\]	0r
.	4B-\	.
.	4A/	.
.	4G/	.
1F	1F	.
=52	=52	=52
2E-\	1r	0r
2.F\	.	.
.	2.F/	.
4E-\	.	.
4D\	.	.
4C/	4E/	.
=53	=53	=53
1.BB-	2F/	0r
.	1G	.
2AA/	2F/	.
=54	=54	=54
1GG	2.B-\	0r
.	4c\	.
2FF/	2A/	.
[2BB-/	2F/	.
=55	=55	=55
2BB-/]	1G	0r
2C/	.	.
2D\	2F/	.
2E-\	[2G/	.
=56	=56	=56
1C	2G/]	0r
.	2A/	.
2BB-/	2G/	.
2D\	2B-\	.
=57	=57	=57
2C/	2c\	0r
1F	2A/	.
.	1G	.
2Eni\	.	.
=58	=58	=58
0F	0F	0r
=59	=59	=59
1D	0r	1f
2E-\	.	2g/
2D\	.	[2a/
=60	=60	=60
2F\	0r	2a/]
2D\	.	2f/
1C	.	2g/
.	.	2a/
=61	=61	=61
1BB-	0r	1b-
2AA/	.	1cc
[2FF/	.	.
=62	=62	=62
2FF/]	0r	2a/
1GG	.	1b-i
2FF/	.	2a/
=63	=63	=63
2BB-/	0r	1g
2C/	.	.
1D	.	1f
=64	=64	=64
2r	0r	2d/
2G\	.	2.e-/
2F\	.	.
.	.	4d/
2D\	.	4c/
.	.	4B-/
=65	=65	=65
2E-\	0r	2.c/
2F\	.	.
.	.	4B-/
1BB-	.	1d
=66	=66	=66
1AA	0r	2r
.	.	2c/
2BB-/	.	2d/
2GG/	.	2e/
=67	=67	=67
2FF/	0r	2.f/
1BB-	.	.
.	.	8e/L
.	.	8f/J
.	.	1g
2C/	.	.
=68	=68	=68
1D	0r	2f/
.	.	2d/
2G\	.	2e-i/
2F\	.	[2d/
=69	=69	=69
2D\	0r	2d/]
2E-\	.	2g/
1D	.	2f/
.	.	[2b-i\
=70	=70	=70
2GG/	0r	2b-\]
2FF/	.	2a/
1BB-	.	2f/
.	.	2g/
=71	=71	=71
2AA/	0r	2.a/
2.FF/	.	.
.	.	4f/
.	.	2f/
4GG/	.	.
2AA/	.	2c/
=72	=72	=72
2BB-/	0r	2f/
2AA/	.	2a/
1C	.	2g/
.	.	[2cc\
=73	=73	=73
2F\	0r	4cc\]
.	.	4a/
2G\	.	2b-i\
2F\	.	2a/
[2C/	.	[2g/
=74	=74	=74
2C/]	0r	2g/]
2D\	.	2f/
1C	.	2.g/
.	.	4b-i\
=75	=75	=75
1FF	2r	1a
.	2F/	.
2r	2G/	2g/
2GG/	2B-\	[2g/
=76	=76	=76
2.AA/	1A	2g/]
.	.	2f/
4BB-/	.	.
1C	2G/	1e
.	[2c\	.
=77	=77	=77
2r	2c\]	1d
2G\	2B-\	.
2F\	1A	2r
2D\	.	2f/
=78	=78	=78
2E-\	1G	2g/
2C/	.	2e/
1BB-	2r	1d
.	2B-\	.
=79	=79	=79
2r	2c\	2c/
2.C/	2A/	2.e/
.	1G	.
4D\	.	4f/
4E-\	.	4g/
8D\L	.	8f/L
8E-\J	.	8g/J
=80	=80	=80
2.F\	2F/	2.a/
.	2.A/	.
4D\	.	4f/
2E-\	.	2g/
.	4B-\	.
2C/	4c\	2e/
.	8B-\L	.
.	8c\J	.
=81	=81	=81
1BB-	2.d\	2d/
.	.	2g/
.	4B-\	.
1F	2c\	2c/
.	2A/	2f/
=82	=82	=82
2E-\	2G/	2g/
2F\	2c\	1f
2D\	2B-\	.
2C/	[2c\	2e/
=83	=83	=83
2G\	2c\]	1d
2GG/	2Bni\	.
2.AA/	2.c\	2c/
.	.	[2cc\
4BB-/	4B-i\	.
=84	=84	=84
2C/	2G/	4cc\]
.	.	4b-i\
1FF	1A	2.cc\
.	.	4a/
2GG/	2G/	2b-i\
=85	=85	=85
2AA/	2c\	2a/
2BB-/	2d\	2f/
1C	1c	1e
=86	=86	=86
0Cl	0cl	0el
!!LO:LB:i:g=z
=87||	=87||	=87||
*>C	*>C	*>C
*clefF4	*clefGv2	*clefG2
*k[b-e-]	*k[b-]	*k[]
*M2/1	*M2/1	*M2/1
*met(C)	*met(C)	*met(C)
!!section: Osanna
!!!OMD: Osanna
!	!	!LO:TX:X=-40:Z=6:t=[key signature flat on B3 only]
1FF	0c	0a
1AA	.	.
=88	=88	=88
1GG	1d	1b
[1AA	1c	[1cc
=89	=89	=89
2AA/]	0A	1cc]
2FF/	.	.
1AA	.	1f
=90	=90	=90
1GG	1B-	1g
[1FF	1c	[1a
=91	=91	=91
1FF]	0F	1a]
1AA	.	1cc
=92	=92	=92
1GG	1G	1b
1FF	1A	[1cc
=93	=93	=93
0F	1c	2cc\]
.	.	2a/
.	1d	1a
=94	=94	=94
0G	0B-	1r
.	.	1d
=95	=95	=95
1C	[0A	1e
[1D	.	[1f
=96	=96	=96
1D]	0A]	1f]
1C	.	1e
=97	=97	=97
0G	0B-	1d
.	.	[1g
=98	=98	=98
0C	[0c	2g/]
.	.	4f/
.	.	4g/
.	.	[1a
=99	=99	=99
1r	0c]	2a/]
.	.	4g/
.	.	4f/
1C	.	1e
=100	=100	=100
1F	1A	1f
1E-	1B-	[1g
=101	=101	=101
1C	1.c	1g]
1AA	.	1c
.	4B-\	.
.	4A/	.
=102	=102	=102
1BB-	1G	1.g
1C	1c	.
.	.	4f/
.	.	4g/
=103	=103	=103
0r	1F	1a
.	[1c	2g/
.	.	[2e/
=104	=104	=104
0r	2c\]	2e/]
.	2d\	2f/
.	2.e\	2g/
.	.	[2c/
.	4f\	.
=105	=105	=105
0r	2g\	2c/]
.	2c\	2A/
.	2d\	2G/
.	2e\	2g/
=106	=106	=106
0r	2f\	2a/
.	2g\	1g
.	1c	.
.	.	[2cc\
=107	=107	=107
1GG	1d	2cc\]
.	.	2b\
2AA/	[1c	2a/
2BB-/	.	4g/
.	.	4f/
=108	=108	=108
1C	1c]	1e
1BB-	1d	2r
.	.	2b-i\
=109	=109	=109
2r	2c\	2a/
2D\	2A/	2f/
1GG	1B-	2g/
.	.	4f/
.	.	4g/
=110	=110	=110
1D	1A	2.a/
.	.	4g/
2C/	2r	2e/
2D\	2d\	2f/
=111	=111	=111
2E-\	2c\	2e-i/
2F\	2A/	2c/
2D\	2B-\	2d/
2E-\	2G/	2B-/
=112	=112	=112
2.F\	1F	2.A/
4G\	.	4B-/
2A\	2r	2c/
2D\	2f\	2d/
=113	=113	=113
2E-\	2e-i\	2c/
2F\	2c\	1f
1BB-	2d\	.
.	2B-\	4e/
.	.	4d/
=114	=114	=114
2C/	1A	2e/
2D\	.	2f/
2BB-/	2B-\	2g/
2AA/	2c\	[2a/
=115	=115	=115
2r	1d	2a/]
2D\	.	4g/
.	.	4f/
2E-\	4c\	2g/
.	4B-\	.
2C/	2c\	2a/
=116	=116	=116
2GG/	2d\	2b-i\
2C/	2e\	2cc\
1D	2f\	2a/
.	2d\	2f/
=117	=117	=117
2GG/	2B-\	2b-\
2C/	2e-\	2cc\
1D	2f\	2.a/
.	[2d\	.
.	.	4f/
=118	=118	=118
2E-\	4d\]	2g/
.	4B-\	.
2C/	2c\	2e/
1F	2A/	2c/
.	2F/	2cc\
=119	=119	=119
2FF/	2f\	2a/
2BB-/	2d\	2f/
2GG/	2B-\	2g/
[2AA/	2c\	[2c/
=120	=120	=120
2AA/]	1F	4c/]
.	.	4d/
2FF/	.	1f
1C	1G	.
.	.	2e/
=121	=121	=121
0FFl	0Fl	0fl
!!LO:LB:i:g=z
!!LO:TX:rj:i:Y=30:t=fine
=122||	=122||	=122||
*>D	*>D	*>D
*clefF4	*clefGv2	*clefG2
*k[b-e-]	*k[b-]	*k[]
*M2/1	*M2/1	*M2/1
*met(C)	*met(C)	*met(C)
!!section: Benedictus
!!!OMD: Benedictus
!	!	!LO:TX:X=-40:Z=6:t=[key signature flat on B3 only]
0FF	[0F	0r
=123	=123	=123
1.BB-	0F]	0r
2AA/	.	.
=124	=124	=124
1AA	0A	0r
1FF	.	.
=125	=125	=125
2r	0G	0r
1C	.	.
4BB-/	.	.
4AA/	.	.
=126	=126	=126
2GG/	0G	0r
1C	.	.
2BB-/	.	.
=127	=127	=127
1C	1A	0r
1D	1B-	.
=128	=128	=128
2C/	1.c	0r
1F	.	.
2D\	2B-\	.
=129	=129	=129
2E-\	1c	0r
1F	.	.
.	1d	.
2G\	.	.
=130	=130	=130
1C	1e-i	0r
2r	2c\	.
2BB-/	2d\	.
=131	=131	=131
2GG/	2e-i\	0r
2AA/	2f\	.
2GG/	2.g\	.
2C/	.	.
.	4e-i\	.
=132	=132	=132
2AA/	2.f\	0r
2.BB-/	.	.
.	4e-i\	.
.	4d\	.
4C/	4c\	.
2D\	2B-\	.
=133	=133	=133
2C/	1c	0r
2E-\	.	.
2F\	4B-\	.
.	4A/	.
[2G\	2G/	.
=134	=134	=134
2G\]	2B-\	0r
2A\	2c\	.
2F\	1d	.
[2G\	.	.
=135	=135	=135
2G\]	2B-\	0r
2E-\	2.c\	.
2.F\	.	.
.	4d\	.
.	2f\	.
8E-\L	.	.
8D\J	.	.
=136	=136	=136
2C/	2e\	0r
1BB-	2d\	.
.	2g\	.
[2C/	2G/	.
=137	=137	=137
2C/]	2A/	0r
2E-\	1c	.
1D	.	.
.	2Bni\	.
=138	=138	=138
0C	0c	0r
=139	=139	=139
0C	1.e-i	0g
.	2c\	.
=140	=140	=140
2.BB-/	2.d\	1g
4AA/	4e\	.
1FF	1f	1a
=141	=141	=141
1C	2e-i\	2g/
.	2c\	1cc
1GG	1d	.
.	.	2b\
=142	=142	=142
1C	2c\	1cc
.	2A/	.
1r	1G	2b-i\
.	.	[2g/
=143	=143	=143
0C	1r	4g/]
.	.	8f/L
.	.	8g/J
.	.	2.a/
.	[1c	.
.	.	4g/
.	.	2e/
=144	=144	=144
1AA	1c]	2f/
.	.	2e/
1BB-	2r	1d
.	[2F/	.
=145	=145	=145
1C	2F/]	1c
.	2E/	.
2.BB-/	2F/	2r
.	2G/	2d/
4AA/	.	.
=146	=146	=146
1FF	1A	2c/
.	.	1f
1GG	1B-	.
.	.	2e/
=147	=147	=147
0FF	2A/	2.f/
.	1F	.
.	.	4g/
.	.	[1a
.	[2c\	.
=148	=148	=148
0C	4c\]	2a/]
.	4d\	.
.	1e	4g/
.	.	4f/
.	.	2a/
.	2c\	[2g/
=149	=149	=149
1BB-	1d	4g/]
.	.	4f/
.	.	2d/
1C	1c	2e/
.	.	2c/
=150	=150	=150
2D\	0r	2B-/
2C/	.	1c
2E-\	.	.
2F\	.	2A/
=151	=151	=151
2G\	0r	2G/
2C/	.	2c/
2BB-/	.	2d/
[2C/	.	2c/
=152	=152	=152
2C/]	0r	2e/
2AA/	.	2f/
2GG/	.	1g
[2C/	.	.
=153	=153	=153
4C/]	0r	2e/
4AA/	.	.
2.BB-/	.	2d/
.	.	2.f/
4AA/	.	.
[2FF/	.	.
.	.	4e/
=154	=154	=154
2FF/]	0r	1c
2.C/	.	.
.	.	2.g/
4BB-/	.	.
[2D\	.	.
.	.	4f/
=155	=155	=155
2D\]	0r	1a
1C	.	.
.	.	1g
2E-\	.	.
=156	=156	=156
2D\	0r	2.b-i\
2.F\	.	.
.	.	4a/
.	.	2.cc\
4E-\	.	.
2C/	.	.
.	.	4b-i\
=157	=157	=157
2BB-/	0r	2g/
2.D\	.	2f/
.	.	2.a/
4C/	.	.
2AA/	.	.
.	.	4g/
=158	=158	=158
2GG/	0r	2.e/
1C	.	.
.	.	4f/
.	.	4e/
.	.	4c/
2BBni/	.	2d/
=159	=159	=159
2C/	0r	1c
2C/	.	.
2D\	.	2r
2E-\	.	2g/
=160	=160	=160
2F\	0r	2a/
2G\	.	2b-i\
2r	.	1cc
2C/	.	.
=161	=161	=161
2D\	0r	2r
2E-\	.	2g/
2F\	.	2a/
2G\	.	2b-i\
=162	=162	=162
2A\	2.F/	1cc
1F	.	.
.	4G/	.
.	2A/	2a/
2E-\	2B-\	[2g/
=163	=163	=163
1C	1c	2g/]
.	.	1cc
2.F\	1A	.
.	.	[2f/
4G\	.	.
=164	=164	=164
2A\	2r	2f/]
2G\	2.d\	2b-i\
2F\	.	2a/
.	4c\	.
2B-\	2d\	4f/
.	.	[4g/
=165	=165	=165
2A\	2c\	4g/]
.	.	4f/
2F\	2A/	1f
1G	2B-\	.
.	2c\	2e/
=166	=166	=166
0F	2A/	2d/
.	2F/	1c
.	2A/	.
.	2B-\	[2f/
=167	=167	=167
1C	1G	2f/]
.	.	2e/
1FFl	1Fl	1fl
!!LO:TX:i:Y=40:rj:t=Osanna ut supra
=||	=||	=||
*-	*-	*-
!!!RDF**kern: l=long note in original notation
!!!RDF**kern: i=editorial accidental
!!!RDF**kern: V=start of tuplet marker
!!!RDF**kern: Z=end of tuplet marker
!!!ENC:	Chris Gage 08-06-2012
!!!END:	2012/08/06/
!!!EED:	Jesse Rodin
!!!EEV:	2012/08/13/
!!!ONB:	Translated from MusicXML and edited on 2012/08/13/ by Craig Sapp
!!muse2ps: T^@{OPR}^u^@{ONM}{. }@{OTL}^C^@{COM}^i2I150v95,95,150c160
